svg/free/loop-1.svg

<svg version="1.1" xmlns="http://www.w3.org/2000/svg" width="24" height="24" viewBox="0 0 24 24">
<title>loop-1</title>
<path d="M9.75 14.625v1.5h5.25v-1.5h-1.875v-6.375h-1.5v1.125h-1.5v1.5h1.5v3.75h-1.875z"></path>
<path d="M21.75 9.868v2.507c-0.003 2.898-2.352 5.247-5.25 5.25h-12.815l2.094-2.095-1.060-1.060-3.876 3.875 3.469 3.904 1.125-0.997-1.892-2.127h12.955c3.722 0 6.75-3.028 6.75-6.75v-4.007z"></path>
<path d="M2.25 12c0.003-2.898 2.352-5.247 5.25-5.25h12.815l-2.094 2.095 1.060 1.060 3.876-3.875-3.469-3.904-1.125 0.997 1.892 2.127h-12.955c-3.722 0-6.75 3.028-6.75 6.75v4.021l1.5-1.5z"></path>
</svg>

<svg xmlns="http://www.w3.org/2000/svg" width="24" height="24" viewBox="0 0 24 24"><path d="M9.75 14.625v1.5H15v-1.5h-1.875V8.25h-1.5v1.125h-1.5v1.5h1.5v3.75H9.75z"/><path d="M21.75 9.868v2.507a5.256 5.256 0 01-5.25 5.25H3.685l2.094-2.095-1.06-1.06-3.876 3.875 3.469 3.904 1.125-.997-1.892-2.127H16.5a6.758 6.758 0 006.75-6.75V8.368z"/><path d="M2.25 12A5.256 5.256 0 017.5 6.75h12.815l-2.094 2.095 1.06 1.06 3.876-3.875-3.469-3.904-1.125.997 1.892 2.127H7.5A6.758 6.758 0 00.75 12v4.021l1.5-1.5z"/></svg>
